X:1
T:Cowboy Carol
T:Cecil Broadhurst Arr. Dolores Abalos 
%%score 1 2 3 4
L:1/8
Q:1/4=110
M:4/4
K:F
V:1 treble nm="Soprano" snm="S."
V:2 treble nm="Alto" snm="A."
V:3 treble-8 nm="Tenor" snm="T."
V:4 bass nm="Bass" snm="B."
V:1
 z2 C2 F2 G2 | A4 c3 c | B G3 E3 C | F8- | F2 F2 E2 F2 | B4 B3 B | [Bd] [Bd]3 d3 d | d2 c6- | %8
w: There`ll~ be~ a~|new~ world~ be~|gi nin`~ from~ to~|night!~-|~- There`ll be~ a~|new~ world~ be~|g\-in nin~ fron~ to~|night!~- *|
 c4 A2 G2 | F2 F2 F F3 | A2 G4 FF | B2 B2 c2 B2 | _d2 d2 d2 d2 | c4 A3 c | B G3 E3 C | F8 | F8 | %17
w: * When~ I~|climb~ up~ to~ my~|sad dle~ gon na~|take~ Him~ to~ my~|heart!~ There`ll~ be~ a~|new~ world~ be|gin nin~ from~ to~|night!||
 G3 G A3 G | E2 C6 | A3 F C3 A | A2 G6 | c2 c2 c3 c | d2 c2 G2 E2 | D8- | D2 E2 F2 ^F2 | %25
w: Right!~ a cross~ the~|prair ie~|clear~ a cross~ the~|val ley~|Straight~ a~ cross~ the~|heart~ of~ ev `ry~|man~|* There'll~ be~ a~|
 G2 G2 A3 G | E2 C4 CC | D2 C2 F2 G2 | A2 =B2 c2 d2 | e6 c2 | G2 F2 D2 =B,2 | C8- | C2 C2 F2 G2 | %33
w: right~ new~ brand~ of~|liv in~ that `ll~|sweep like light- nin|fire and take a|way the|hate from ev- ry|land-|* There'll be a|
 A4 c3 c | B G3 E3 C | F8- | F2 F2 E2 F2 | B4 B3 B | d d3 d3 d | d2 c6- | c4 A2 G2 | F2 F2 F F3 | %42
w: new~ world~ be~|gi nin`~ from~ to~|night~-|* There'll be a|new world be-|ginn- in from to-|night- *|* When I|climb up to my|
 A2 G4 FF | B2 B2 c2 B2 | _d2 d2 d2 d2 | c4 A3 c | B G3 E3 C | F8- | F8 | G3 G A3 G | E2 C6 | %51
w: sad- dle, Gon- na|take him to my|heart, There'll be a|new world be|ginn- in from to-|night-||Right!~ a cross~ the~|prair ie~|
 A3 F C3 A | A2 G6 | c2 c2 c3 c | d2 c2 G2 E2 | D8- | D2 E2 F2 ^F2 | G2 G2 A3 G | E2 C4 CC | %59
w: clear~ a cross~ the~|val ley~|Straight~ a~ cross~ the~|heart~ of~ ev `ry~|man~|* There'll~ be~ a~|right~ new~ brand~ of~|liv in~ that `ll~|
 D2 C2 F2 G2 | A2 =B2 c2 d2 | e6 c2 | G2 F2 D2 =B,2 | C8- | C2 C2 F2 G2 | A4 c3 c | B G3 E3 C | %67
w: sweep like light- nin|fire and take a|way the|hate from ev- ry|land-|* There'll be a|new~ world~ be~|gi nin`~ from~ to~|
 F8- | F2 F2 E2 F2 | B4 B3 B | d d3 d3 d | d2 c6- | c4 A2 G2 | F2 F2 F F3 | A2 G4 FF | %75
w: night~-|* There'll be a|new world be-|ginn- in from to-|night- *|* When I|climb up to my|sad- dle, Gon- na|
 B2 B2 c2 B2 | _d2 d2 d2 d2 | c4 A3 c | B G3 E3 C | F8- | F8 | c4 z4 | f2 c4 A2 | F F3 C3 D | %84
w: take him to my|heart, There'll be a|new world be|ginn- in from to-|night-||Yoi-|yip- pee! We're|gon- na ride the|
 (D2 C6) | c8 | f2 c4 A2 | F F3 E3 F | G4 c2 B2 | A8 | A8 | B8 | B2 _d2 f2 d2 | c4 A3 c | %94
w: trail- *|Yoi|yip- pee! We're|gon- na ride to-|day mm- *||||* There'll be a|new world be|
 B G3 E3 C | F4 d3 d | [df]8 |] %97
w: ginn- in from to-|night. from to-|night!|
V:2
 z2 C2 F2 G2 | F4 F3 F | F D3 C3 C | C2 C4 C2 | C8 | z2 F2 G2 F2 | B2 F2 G2 F2 | F8- | F4 E2 E2 | %9
w: There`ll~ be~ a~|new~ world~ be~|gi nin~ from~ to~|night!~ from to-|night|* world~ *|g\-in nin~ * *|night-|* When~ I~|
 F2 F2 E E3 | _E2 E4 EE | D2 D2 D2 D2 | [FG]2 [FG]2 [FG]2 [FG]2 | A4 F3 A | F D3 E3 C | C8 | C8 | %17
w: climb~ up~ to~ my~|sad dle~ gon na~|take~ Him~ to~ My~|heart!~ There`ll~ be a~|new world~ be|gin nin~ from~ to~|night!||
 z2 EE E2 E2 | z2 EE E2 E2 | z2 CC C2 C2 | z2 EE E2 E2 | .E2 E2 E3 E | E2 E2 E2 C2 | =B,8- | %24
w: pink a pang~ pang~|pink a pang~ pang~|pink a pang pang|pink a pang~ pang~|Straight~ a~ cross~ the~|heart~ of~ ev `ry~|man~|
 B,2 C2 D2 ^D2 | E2 EE E2 E2 | z2 CC C2 CC | C2 C2 D2 E2 | A2 =B2 c2 d2 | c2 G2 A2 A2 | %30
w: * There'll~ be~ a~|ping~ pink a pang pang|pink a pang that `ll~|sweep like light- nin|fire and take a|way, and take the|
 D2 C2 =B,2 G,2 | G,4 =B,4 | _B,2 C2 F2 G2 | F4 F3 F | F F3 C3 C | C2 C>C D2 C2 | C8 | %37
w: hate from ev- ry|land ev-|land There`ll be a|new world be|gin nin from to|night pink a pink pang|pong|
 z2 F2 G2 F2 | B2 F2 G2 F2 | F8- | F4 E2 E2 | F2 F2 E E3 | _E2 E4 FF | D2 D2 D2 D2 | %44
w: There'll be a|new world from to-|night-|* When I|climb up to my|sad- dle, Gon- na|take him to my|
 G2 [FG]2 [FG]2 [FG]2 | A4 F3 A | F F3 C3 C | C8- | C8 | z2 EE E2 E2 | z2 EE E2 E2 | z2 CC C2 C2 | %52
w: heart, There'll be a|new world be|ginn- in from to-|night-||pink a pang~ pang~|pink a pang~ pang~|pink a pang pang|
 z2 EE E2 E2 | .E2 E2 E3 E | E2 E2 E2 C2 | =B,8- | B,2 C2 D2 ^D2 | E2 EE E2 E2 | z2 CC C2 CC | %59
w: pink a pang~ pang~|Straight~ a~ cross~ the~|heart~ of~ ev `ry~|man~|* There'll~ be~ a~|ping~ pink a pang pang|pink a pang that `ll~|
 C2 C2 D2 E2 | A2 =B2 c2 d2 | c2 G2 A2 A2 | D2 C2 =B,2 G,2 | G,4 =B,4 | _B,2 C2 F2 G2 | F4 F3 F | %66
w: sweep like light- nin|fire and take a|way, and take the|hate from ev- ry|land ev-|land There`ll be a|new world be|
 F F3 C3 C | C2 C>C D2 C2 | C8 | z2 F2 G2 F2 | B2 F2 G2 F2 | F8- | F4 E2 E2 | F2 F2 E E3 | %74
w: gin nin from to|night pink a pink pang|pong|There'll be a|new world from to-|night-|* When I|climb up to my|
 _E2 E4 FF | D2 D2 D2 D2 | G2 [FG]2 [FG]2 [FG]2 | A4 F3 A | F F3 C3 C | C8- | C8 | A2 F2 E2 D2 | %82
w: sad- dle, Gon- na|take him to my|heart, There'll be a|new world be|ginn- in from to-|night-||Yoi, yoi, yoi, yoi|
 C2 A4 F2 | C C3 D3 D | (D2 C6) | A2 F2 E2 D2 | C2 A4 F2 | C C3 D3 D | E4 E4 | F4 E4 | _E8 | D8 | %92
w: Yip- pee! We're|gon- na ride the|trail- *|Yoi, yoi, yoi, yoi|yip- pee we're|gon- na ride to-|day mm-||||
 [FG]2 [FG]2 [FG]2 G2 | [FA]4 F3 F | F F3 E3 C | C4 G3 G | A8 |] %97
w: There'll be a *|new world be-|gin- nin from to|night, from to-|night|
V:3
 z2 C2 F2 G2 | A2 c2 e2 d2 | d B3 A3 B | A2 c>c d2 c2 | c6 A2 | d4 d3 d | B B3 B3 B | B2 A6- | %8
w: There`ll~ be~ a~|new,~ a new world|'gin- nin~ from~ to~|night!~ pink a ping pang~|pong.~ a~|new~ world~ be~|gin nin~ from~ to~|night~- *|
 A4 c2 B2 | A2 A2 A A3 | c2 B4 AA | B2 B2 F2 F2 | B2 B2 B2 B2 | B2 c2 d2 c2 | dB z2 c3 B | A8 | %16
w: * When~ I~|climb~ up~ to~ my~|sad dle~ gon na~|take~ Him~ to~ my~|heart!~ There`lll~ be~ a~|new~ * * *|gin nin~ from~ to~|night!-|
 A8 | z2 cc c2 c2 | z2 cc c2 c2 | z2 AA A2 A2 | z2 cc c2 c2 | c2 c2 c3 c | c2 G2 A2 G2 | G8- | %24
w: |pink a pang~ pang~|pink a pang~ pang~|pink a pang pang|pink a pang~ pang~|Straight~ a~ cross~ the~|heart~ of~ ev `ry~|man~|
 G8- | G2 c6 | _B6 BB | A2 A2 c2 c2 | c2 =B2 c2 d2 | c6 c2 | =B2 A2 G2 F2 | E2 E2 F2 ^F2 | %32
w: |* Ah-|* That- 'll|sweep like light- nin|fire and take a|way the|hate from ev- ry|land from ev- ry|
 G2 C2 F2 G2 | A2 c2 f2 d2 | d B3 A3 B | A2 A4 A2 | A6 A2 | d4 d3 d | B B3 B3 B | B2 A6- | %40
w: land There`ll be a|new, a world be-|gin nin from to|night from to|night A|new world be-|ginn- in from to-|night- *|
 A4 c2 B2 | A2 A2 A A3 | c2 B4 AA | B2 B2 F2 F2 | B2 B2 B2 B2 | c2 c2 d2 c2 | d B3 A3 B | A8- | %48
w: * When I|climb up to my|sad- dle, Gon- na|take him to my|heart, There'll be a|new, a new world|gin- nin from to-|night-|
 A8 | z2 cc c2 c2 | z2 cc c2 c2 | z2 AA A2 A2 | z2 cc c2 c2 | c2 c2 c3 c | c2 G2 A2 G2 | G8- | %56
w: |pink a pang~ pang~|pink a pang~ pang~|pink a pang pang|pink a pang~ pang~|Straight~ a~ cross~ the~|heart~ of~ ev `ry~|man~|
 G8- | G2 c6 | _B6 BB | A2 A2 c2 c2 | c2 =B2 c2 d2 | c6 c2 | =B2 A2 G2 F2 | E2 E2 F2 ^F2 | %64
w: |* Ah-|* That- 'll|sweep like light- nin|fire and take a|way the|hate from ev- ry|land from ev- ry|
 G2 C2 F2 G2 | A2 c2 f2 d2 | d B3 A3 B | A2 A4 A2 | A6 A2 | d4 d3 d | B B3 B3 B | B2 A6- | %72
w: land There`ll be a|new, a world be-|gin nin from to|night from to-|night A|new world be-|ginn- in from to-|night- *|
 A4 c2 B2 | A2 A2 A A3 | c2 B4 AA | B2 B2 F2 F2 | B2 B2 B2 B2 | c2 c2 d2 c2 | d B3 A3 B | A8- | %80
w: * When I|climb up to my|sad- dle, Gon- na|take him to my|heart, There'll be a|new, a new world|be- ginn- in to-|night-|
 A8 | A8 | c2 B2 A2 G2 | A A3 B3 B | (B2 A6) | A8 | d2 B2 A2 G2 | A A3 =B3 B | c4 A2 G2 | %89
w: |Yoi|yoi yoi yoi yoi|gon- na ride the|trail *|Yoi|yoi yoi yoi yoi|gon- na ride to-|day When I|
 F2 F2 F F3 | A2 G4 FF | B2 B2 c2 B2 | _d2 d2 d2 d2 | c4 e3 e | d d3 A3 A | A4 B3 B | c8 |] %97
w: climb up to my|sad- dle gon- na|take him to my|heart, There'll be a|new world be-|gin- nin from to|night, from to-|night|
V:4
 z2 C,2 F,2 G,2 | F,4 A,3 A, | G, G,3 C,3 C, | F,4 F,,4 | F,2 F,2 E,2 F,2 | B,4 B,,4 | B,4 B,,4 | %7
w: There`ll~ be~ a~|new~ world~ be~|gin nin~ from~ to~|night!~ pong~|pong.~ There`ll~ be~ a~|new~ world~|pink~ pang~|
 F,2 C,>C, D,2 C,2 | F,,4 C,2 C,2 | F,4 F,,4 | F,4 F,,4 | B,4 B,,4 | B,2 B,2 B,2 B,2 | C4 C,3 C, | %14
w: pong~ pink ap ing pang|pong.~ When~ I~|pong~ pong~|pang~ pong~|pong~ pong~|pong!~ There`lll~ be~ a~|new~ world~ be|
 G, G,3 C,3 C, | F,2 C,>C, D,2 C,2 | F,,2 C,2 F,4 | C,2 G,2 A,2 G,2 | C,2 G,2 A,2 G,2 | %19
w: gin nin~ from~ to~|night!~ Pink a~ p\-ing pang|ping ping pong|pong pong pong pong|pong pong pong pang~|
 F,,2 C,2 D,2 C,2 | C,2 G,2 A,2 G,2 | C,2 G,2 A,2 G,2 | .C,2 C,2 E,2 E,2 | G,2 G,,>G,, A,,2 G,,2 | %24
w: pong pong pong pong|pong pong pong pong|Straight~ a~ cross~ the~|heart~ of~ ev `ry~|man~ pink~ a~ ping~ pong~|
 G,8 | C,2 G,2 A,2 G,2 | G,2 C,2 D,2 E,2 | F,2 F,2 A,2 G,2 | F,2 =B,2 C2 C2 | G,6 G,2 | %30
w: pong~|pong pong pong pong-|* pong pong pong|sweep like light- nin|fire and take a|way the|
 G,2 G,2 G,,2 G,,2 | C,2 C,2 D,2 ^D,2 | E,2 C,2 F,2 G,2 | F,4 A,3 A, | G, G,3 C,3 C, | F,4 F,,4 | %36
w: hate from ev- ry|land from ev- ry|land There`ll be a|new world be|gin nin from to|night pong|
 F,2 F,2 E,2 F,2 | B,4 B,,4 | B,4 B,,4 | F,2 C,>C, D,2 C,2 | F,,4 C,2 C,2 | F,4 F,,4 | F,4 F,,4 | %43
w: pong, There'll' be a|mw world|pong pong|pong pink a pong pong|pong when I|pong pong|pong pong|
 B,4 B,,4 | B,2 B,2 B,2 B,2 | C4 C,3 C, | G, G,3 C,3 C, | F,2 C,>C, D,2 C,2 | F,,2 C,2 F,4 | %49
w: pong pong|pong There'll be a|new world be|ginn- in from to-|night- pink a pong pong|ping ping pong|
 C,2 G,2 A,2 G,2 | C,2 G,2 A,2 G,2 | F,,2 C,2 D,2 C,2 | C,2 G,2 A,2 G,2 | C,2 G,2 A,2 G,2 | %54
w: pong pong pong pong|pong pong pong pang~|pong pong pong pong|pong pong pong pong|Straight~ a~ cross~ the~|
 .C,2 C,2 E,2 E,2 | G,2 G,,>G,, A,,2 G,,2 | G,8 | C,2 G,2 A,2 G,2 | G,2 C,2 D,2 E,2 | %59
w: heart~ of~ ev `ry~|man~ pink~ a~ ping~ pang~|pong~|pong pong pong pong-|* pong pong pong|
 F,2 F,2 A,2 G,2 | F,2 =B,2 C2 C2 | G,6 G,2 | G,2 G,2 G,,2 G,,2 | C,2 C,2 D,2 ^D,2 | %64
w: sweep like light- nin|fire and take a|way the|hate from ev- ry|land from ev- ry|
 E,2 C,2 F,2 G,2 | F,4 A,3 A, | G, G,3 C,3 C, | F,4 F,,4 | F,2 F,2 E,2 F,2 | B,4 B,,4 | B,4 B,,4 | %71
w: * There`ll be a|new world be|gin nin from to|night pong|pong, There'll' be a|mw world|pong pong|
 F,2 C,>C, D,2 C,2 | F,,4 C,2 C,2 | F,4 F,,4 | F,4 F,,4 | B,4 B,,4 | B,2 B,2 B,2 B,2 | C4 C,3 C, | %78
w: pong pink a pong pong|pong when I|pong pong|pong pong|pong pong|pong There'll be a|new world be|
 G, G,3 C,3 C, | F,2 C,>C, D,2 C,2 | F,,2 C,2 F,4 | F,4 z4 | A,2 E,4 F,2 | F, F,3 B,,3 B,, | F,8 | %85
w: ginn- in from to-|night- pink a ping pang|ping ping pong|Yoi-|yip- pee! We're|gon- na ride the|trail|
 F,8 | A,2 F,4 F,2 | D, D,3 G,,3 G,, | C,4 C,4 | F,,8 | F,,8 | B,,8 | B,,2 B,,2 B,,2 B,,2 | %93
w: Yoi|yip- pee we're|gon- na ride to-|day mm-||||* There'll be a|
 C,4 C,3 C, | C, C,3 C,3 C, | F,4 B,,3 B,, | F,8 |] %97
w: new world be-|gin- nin from to|night, from to-|night|

